!!!OTL: Xiaobiandan
!!!ARE: Asia, China,ÿJiangsu Huaizhong
!! III, 468, 2)
!!!SCT: C2032
!!!YEM: Copyright 1995, estate of Helmut Schaffrath.
**kern
*ICvox
*Ivox
!! Mixed meters:  2/4; 3/4
*M2/4
*k[b-]
*F:
{8.dd
16cc
4a
=1
8.dd
16cc
4a
=2
8g
16a
16cc
16dd
16cc
16a
16f
=3
8g
16a
16cc
4g}
=4
{8.a
16cc
8dd
8ff
=5
16a
16cc
16a
16g
8f
8d
=6
*M3/4
8f
16g
16a
8f
8c
4d}
=7
*M2/4
{16f
16d
16f
16g
4d
=8
8cc
8a
8cc
8a
=9
16f
16g
16a
16cc
4g
=10
8f
16g
16a
8f
8c
=11
4d
16f
16d
16f
16g
=12
2d}
==
!!!AGN: Xiaodiao
!!!AMT: irregular
!!!AIN: vox
!!!EED: Helmut Schaffrath
!!!EEV: 1.0
*-
